X: 287
T: Impish Hornpipe
M:4/4
R:Hornpipe
C: John Sheahan
L:1/8
Z:Transcribed by Jim Hunter. abc by Alf Warnock - alf0@rogers.com
K:F
(3c=B_B|"F"AFCF Acfe|"Bb"gfdB "Gm"D2 (3G_GF|"C"EB,CE GBdc|"F"BAAB "C"G2 (3c=B_B|
"F"AFCF Acfe|"Bb"gfdB "Gm"bagf|"C7"ec=Bc _BGEG|[1 "F" (3FEF "C"AG "F"F2:|[2 "F"(3FEF"C"AG "F"F2||
EF|"C7"GEB,C EGBd|"F"dcc=B c2 (3c=B_B|"D7"AD^FA "Ebdim"A_edc|"Gm"cBBA B2BA|
"Gdim"GB_de gbab|"Abdim"_A=Bde f_g=g_a|"F"afcA "C7"BGDG| "F"(3FEF AG F2:|
